!!!!SEGMENT: pl-wtm--r-1461--004_stefani-jozef--wszechstronne-cwiczenia-glosowe-allegro.krn
!!!cenid: 18xx:2181
!!!COM: Stefani, Józef
!!!COM-rismid: pe30024097
!!!CDT: 1800/04/16-1876/03/19
!!!CNT: Polish
!!!GTL: Wszechstronne ćwiczenia głosowe
!!!OTL: Allegro
!!!PDT:
!!!AGN: Secular
!!!SMS-siglum: PL-Wtm
!!!SMS-shelfmark: R 1461
!!!SMS-shelfwork: 004 G
!!!SMS-variant:
!!!SMS-altvar:
!!!NIFC-rismid: 1001120710
!!!URL-scan: http://repozytorium.nifc.pl/skany/pl-wtm-nut--r1461
!!!ONB-nifc: UWAGA: skan 0005, s. 6
!!!OMD: Allegro.
**kern	**kern	**kern	**text
*part2	*part2	*part1	*part1
*staff3	*staff2	*staff1	*staff1
*Iempty	*Iforte	*Itenor	*
*	*I"Fortepian	*I"Sopran/Tenor	*
*clefF4	*clefG2	*clefG2	*
*k[]	*k[]	*k[]	*
*C:	*C:	*C:	*
*M3/4	*M3/4	*M3/4	*
*all\right	*all\right	*all\right	*
=1	=1	=1	=1
*2\right	*	*	*
!	!	!LO:TX:a:i:t=czytanie proste	!
2C\	2c 2G< 2E</	2c/	do
4BB\	4d 4G</	4d/	re
=2	=2	=2	=2
4C\	4e 4c 4G</	4e/	mi
4AA\	4f 4c 4F</	4f/	fa
4E 4EE\	4g 4c 4G</	4g/	sol
=3	=3	=3	=3
2F 2FF\	2a 2f 2c/	2a/	la
4D 4DD/	4b 4g 4f/	4b/	si
=4	=4	=4	=4
4C 4CC/	4cc 4g 4e/	4cc\	do
4BB 4BBB/	4dd 4g 4d/	4dd\	re
4C 4CC/	4ee 4cc 4g/	4ee\	mi
=5	=5	=5	=5
*	*2\right	*2\right	*
2A 2AA\	2ff 2cc 2f\	2ff\	fa
4E 4EE/	4gg 4cc\	4gg\	sol
=6	=6	=6	=6
2.F 2.FF/	2.aa 2.ff 2.cc\	2.aa\	la
!!LO:LB:g=original
=7||	=7||	=7||	=7||
2F 2FF/	2aa 2ff 2cc\	2aa\	la
4E 4EE/	4gg 4cc\	4gg\	sol
=8	=8	=8	=8
4D 4DD/	4ff 4b 4g\	4ff\	fa
4C 4CC/	4ee 4cc 4g\	4ee\	mi
4BB 4BBB/	4dd 4g\	4dd\	re
=9	=9	=9	=9
2AA 2AAA/	2cc 2a 2e/	2cc\	do
4E 4EE/	4b 4g#X 4d/	4b\	si
=10	=10	=10	=10
4F 4FF/	4a 4c/	4a/	la
4E 4EE/	4g 4c/	4g/	sol
4D 4DD\	4f 4B 4G</	4f/	fa
=11	=11	=11	=11
*	*^	*	*
4C 4CC\	4e 4c 4G</	4ryy	4e/	mi
4A 4F 4FF\	2d/	4c\	2d/	re
4G 4GG\	.	4B	.	.
=12	=12	=12	=12	=12
2.C/	2.c/	2.c\	2.c/	do.
*	*v	*v	*	*
==	==	==	==
*-	*-	*-	*-
!!!system-decoration: <s1>{(s2,s3)}
!!!RDF**kern: > = above
!!!RDF**kern: < = below
!!!ENC: Andrzej Kubiczek
!!!END: 2021-06-03
!!!ENC: Tomasz Grochalski
!!!END: 2021-05-16
